X:812
T:Reel 812
M:4/4
K:Dmaj
L:1/8
D>E (3EDE F>E (3FEF |E>D (3EDE B2E2|F>E (3EDE d>c (3cBc ||BcdB AFED:||2B>c (3Bcd AFE2|Beed efedc|B>BAF AdB2d>A| (3Bcd AF FEE2| (3BcB AF E2D2| (3Bcd AF FEE2:||2 (3Bcd AF E2D2|
